X: 2023
M: C
L: 1/8
K: A
uc |\
vA,>vA (Ac/d/) ve>vA c2 | (3fga (3efd c<AA :|
|: uE |\
(C<E) (EF/G/) vA>vE A2 | (F<B) B>c d>cB>A |\
(3cde (3fga f>ed>c | (3Bcd (3efd c<A A :|


